exported-svg/youtube.svg

<svg height="24" viewBox="0 0 24 24" width="24" xmlns="http://www.w3.org/2000/svg"><path d="m23.5256123 6.79859654.0070218.0326463c.3227019 1.78902058.4793452 3.60404046.4679377 5.41696036.0064352 1.7906848-.1501884 3.5782365-.4749595 5.3732003-.2852764 1.1397511-1.1583848 2.0398628-2.2958564 2.3616206-.708775.1895561-2.1742523.3127341-4.2170306.3907805-.98759.0377318-2.0447163.0619649-3.1017015.075426-.3698341.00471-.7132845.0077381-1.0215974.0094208-.1852275.001011-.3177658.0013486-.3888514.0013486s-.2036238-.0003376-.3888514-.0013486c-.3083129-.0016827-.6517633-.0047108-1.0215974-.0094208-1.0569851-.0134611-2.11411146-.0376942-3.10170146-.075426-2.04277827-.0780464-3.50825556-.2012244-4.21980824-.3915319-1.10666509-.3028036-1.97466582-1.1618559-2.30010058-2.3135155-.32270184-1.7890206-.4793452-3.6040405-.46793479-5.4162867-.00891518-1.8042711.14771826-3.60555556.47495658-5.41387396.28527648-1.13975118 1.1583848-2.03986285 2.29585645-2.36162066.70877502-.18955611 2.17425231-.31273411 4.21703058-.39078045.98759-.03773184 2.04471636-.06196497 3.10170146-.07542602.3698341-.00470996.7132845-.00773808 1.0215974-.00942085.1852276-.00101098.3177658-.00134856.3888514-.00134856.071009 0 .2034685.00030805.3886141.0012307.3082112.00153593.6515568.0042999 1.0212811.00859902 1.0566444.01228656 2.1134177.03440507 3.1005973.06884157 2.0394147.07114237 3.5032578.18348381 4.225624.36021302 1.130536.31984938 2.0036444 1.21996105 2.2889208 2.35971223zm-.5250274 5.44826406c.0109907-1.7504144-.1393051-3.49810691-.4489751-5.22092127-.2022893-.78493762-.8062968-1.40390782-1.5696429-1.62021089-.6114686-.14931212-2.043544-.25921557-4.0057619-.32766503-.9785347-.03413494-2.0278838-.05609806-3.0773619-.06830129-.3674186-.00427231-.7085627-.00701855-1.0146373-.00854384-.1834257-.00091408-.3142315-.00121828-.3836308-.00121828-.0693225 0-.2000496.00033297-.3833935.00133366-.3059728.00167-.6470122.00467686-1.014321.00935466-1.0491372.01336111-2.09813334.03740786-3.07625763.07477806-1.95885439.07483995-3.38929547.19507304-3.98991139.35564931-.78586043.22233433-1.39277719.84802171-1.58405359 1.60762066-.30935811 1.71545972-.46068193 3.45568375-.45207272 5.20440305-.01102724 1.7562339.14030618 3.5097276.44088924 5.1899117.21844558.7670447.82181195 1.3641908 1.58830149 1.5739248.6075515.1624847 2.03799258.2827178 3.99684697.3575577.97812429.0373702 2.02712043.061417 3.07625763.0747781.3673088.0046778.7083482.0076846 1.014321.0093546.1833439.0010007.314071.0013337.3833935.0013337.0693226 0 .2000497-.000333.3833935-.0013337.3059729-.00167.6470122-.0046768 1.014321-.0093546 1.0491373-.0133611 2.0981334-.0374079 3.0762577-.0747781 1.9588544-.0748399 3.3892955-.195073 3.9899114-.3556493.7858604-.2223343 1.3927772-.8480217 1.5840507-1.6076047.3069717-1.7025424.458286-3.4294991.4520756-5.164419zm-12.5028364 3.7077717c-.3333227.1895592-.74717347-.0511786-.74717347-.4346323v-6.54c0-.3834537.41385077-.62419152.74717347-.43463232l5.75 3.27000002c.337102.1917084.337102.6775562 0 .8692646zm.2528265-1.2941789 4.2385648-2.4104534-4.2385648-2.41045335z"/></svg>

<?xml version="1.0" encoding="UTF-8"?>
<svg width="24px" height="24px" viewBox="0 0 24 24" version="1.1" xmlns="http://www.w3.org/2000/svg" xmlns:xlink="http://www.w3.org/1999/xlink">
    <!-- Generator: Sketch 55.2 (78181) - https://sketchapp.com -->
    <title>youtube</title>
    <desc>Created with Sketch.</desc>
    <g id="youtube" stroke="none" stroke-width="1" fill="none" fill-rule="evenodd">
        <path d="M23.5256123,6.79859654 L23.5326341,6.83124284 C23.855336,8.62026342 24.0119793,10.4352833 24.0005718,12.2482032 C24.007007,14.038888 23.8503834,15.8264397 23.5256123,17.6214035 C23.2403359,18.7611546 22.3672275,19.6612663 21.2297559,19.9830241 C20.5209809,20.1725802 19.0555036,20.2957582 17.0127253,20.3738046 C16.0251353,20.4115364 14.968009,20.4357695 13.9110238,20.4492306 C13.5411897,20.4539406 13.1977393,20.4569687 12.8894264,20.4586514 C12.7041989,20.4596624 12.5716606,20.46 12.500575,20.46 C12.4294894,20.46 12.2969512,20.4596624 12.1117236,20.4586514 C11.8034107,20.4569687 11.4599603,20.4539406 11.0901262,20.4492306 C10.0331411,20.4357695 8.97601474,20.4115364 7.98842474,20.3738046 C5.94564647,20.2957582 4.48016918,20.1725802 3.7686165,19.9822727 C2.66195141,19.6794691 1.79395068,18.8204168 1.46851592,17.6687572 C1.14581408,15.8797366 0.989170717,14.0647167 1.00058113,12.2524705 C0.991665954,10.4481994 1.14829939,8.64691494 1.47553771,6.83859654 C1.76081419,5.69884536 2.63392251,4.79873369 3.77139416,4.47697588 C4.48016918,4.28741977 5.94564647,4.16424177 7.98842474,4.08619543 C8.97601474,4.04846359 10.0331411,4.02423046 11.0901262,4.01076941 C11.4599603,4.00605945 11.8034107,4.00303133 12.1117236,4.00134856 C12.2969512,4.00033758 12.4294894,4 12.500575,4 C12.571584,4 12.7040435,4.00030805 12.8891891,4.0012307 C13.1974003,4.00276663 13.5407459,4.0055306 13.9104702,4.00982972 C14.9671146,4.02211628 16.0238879,4.04423479 17.0110675,4.07867129 C19.0504822,4.14981366 20.5143253,4.2621551 21.2366915,4.43888431 C22.3672275,4.75873369 23.2403359,5.65884536 23.5256123,6.79859654 Z M23.0005849,12.2468606 C23.0115756,10.4964462 22.8612798,8.74875369 22.5516098,7.02593933 C22.3493205,6.24100171 21.745313,5.62203151 20.9819669,5.40572844 C20.3704983,5.25641632 18.9384229,5.14651287 16.976205,5.07806341 C15.9976703,5.04392847 14.9483212,5.02196535 13.8988431,5.00976212 C13.5314245,5.00548981 13.1902804,5.00274357 12.8842058,5.00121828 C12.7007801,5.0003042 12.5699743,5 12.500575,5 C12.4312525,5 12.3005254,5.00033297 12.1171815,5.00133366 C11.8112087,5.00300366 11.4701693,5.00601052 11.1028605,5.01068832 C10.0537233,5.02404943 9.00472716,5.04809618 8.02660287,5.08546638 C6.06774848,5.16030633 4.6373074,5.28053942 4.03669148,5.44111569 C3.25083105,5.66345002 2.64391429,6.2891374 2.45263789,7.04873635 C2.14327978,8.76419607 1.99195596,10.5044201 2.00056517,12.2531394 C1.98953793,14.0093733 2.14087135,15.762867 2.44145441,17.4430511 C2.65989999,18.2100958 3.26326636,18.8072419 4.0297559,19.0169759 C4.6373074,19.1794606 6.06774848,19.2996937 8.02660287,19.3745336 C9.00472716,19.4119038 10.0537233,19.4359506 11.1028605,19.4493117 C11.4701693,19.4539895 11.8112087,19.4569963 12.1171815,19.4586663 C12.3005254,19.459667 12.4312525,19.46 12.500575,19.46 C12.5698976,19.46 12.7006247,19.459667 12.8839685,19.4586663 C13.1899414,19.4569963 13.5309807,19.4539895 13.8982895,19.4493117 C14.9474268,19.4359506 15.9964229,19.4119038 16.9745472,19.3745336 C18.9334016,19.2996937 20.3638427,19.1794606 20.9644586,19.0188843 C21.750319,18.79655 22.3572358,18.1708626 22.5485093,17.4112796 C22.855481,15.7087372 23.0067953,13.9817805 23.0005849,12.2468606 Z M10.4977485,15.9546323 C10.1644258,16.1441915 9.75057503,15.9034537 9.75057503,15.52 L9.75057503,8.98 C9.75057503,8.5965463 10.1644258,8.35580848 10.4977485,8.54536768 L16.2477485,11.8153677 C16.5848505,12.0070761 16.5848505,12.4929239 16.2477485,12.6846323 L10.4977485,15.9546323 Z M10.750575,14.6604534 L14.9891398,12.25 L10.750575,9.83954665 L10.750575,14.6604534 Z" id="Combined-Shape" fill="#000000" fill-rule="nonzero"></path>
    </g>
</svg>
